X: 131711
T: Margot Jackson
T: Mair\'ead Nic Shiacais
S: B.Breathnach:"Ceol Rince na hEireann" IV/98 
Z: B.Black
L: 1/8
M: 4/4
R: reel
K: G
DF|G2 GF GBdB|cBcd cAFD|EDCE DCB,D|BGAF GFED|
G2 GF GBdB|cBcd cAFD|(3EGE CE (3DED B,D|BGAF G2 :|
Bd|g2 fg bgfd|f2 ef gecA|ce (3eee Bd (3ddd|BGAF GABd|
(3gfg fg bgfd|f2 ef gecA|EGEC B,Ddc|BGAF G2 :|
